dist/assets/icons/search.svg

<svg width="16" height="16" viewBox="0 0 16 16" fill="none" xmlns="http://www.w3.org/2000/svg">
<path d="M15.8041 14.8638L11.9576 11.0172C12.911 9.85475 13.4857 8.36576 13.4857 6.74289C13.4857 3.02042 10.4653 0 6.74286 0C3.01714 0 0 3.02042 0 6.74289C0 10.4654 3.01714 13.4858 6.74286 13.4858C8.36571 13.4858 9.85143 12.9144 11.0139 11.9609L14.8604 15.8042C15.1216 16.0654 15.5429 16.0654 15.8041 15.8042C16.0653 15.5462 16.0653 15.1217 15.8041 14.8638ZM6.74286 12.1437C3.76163 12.1437 1.33878 9.72087 1.33878 6.74289C1.33878 3.76492 3.76163 1.33878 6.74286 1.33878C9.72082 1.33878 12.1469 3.76492 12.1469 6.74289C12.1469 9.72087 9.72082 12.1437 6.74286 12.1437Z" fill="#1B1A17"/>
</svg>

<svg width="16" height="16" fill="none" xmlns="http://www.w3.org/2000/svg"><path d="m15.804 14.864-3.846-3.847A6.745 6.745 0 0 0 6.743 0a6.743 6.743 0 1 0 0 13.486 6.707 6.707 0 0 0 4.27-1.525l3.847 3.843a.666.666 0 0 0 .944-.94Zm-9.061-2.72a5.408 5.408 0 0 1-5.404-5.401 5.41 5.41 0 0 1 5.404-5.404 5.413 5.413 0 0 1 5.404 5.404 5.41 5.41 0 0 1-5.404 5.4Z" fill="#1B1A17"/></svg>
